flaticon/constructions/screwdriver-5.svg

<svg xmlns="http://www.w3.org/2000/svg" width="32" height="32" viewBox="0 0 24 24">
    <path d="M 5.199219 0 L 4.398438 0 C 3.28125 0 2.398438 0.878906 2.398438 2 L 2.398438 8.398438 C 2.398438 8.566406 2.476562 8.695312 2.605469 8.757812 C 2.820312 8.9375 3.199219 9.304688 3.199219 9.601562 C 3.199219 9.875 2.878906 10.207031 2.660156 10.421875 C 2.5 10.472656 2.398438 10.609375 2.398438 10.800781 L 2.398438 12.398438 C 2.398438 12.640625 2.558594 12.800781 2.800781 12.800781 L 3.601562 12.800781 L 3.601562 17.199219 C 3.601562 17.238281 3.601562 17.238281 3.601562 17.28125 L 3.921875 18.878906 C 4 19.320312 4.359375 19.601562 4.800781 19.601562 C 5.238281 19.601562 5.601562 19.320312 5.679688 18.878906 L 6 17.28125 C 6 17.238281 6 17.238281 6 17.199219 L 6 12.800781 L 6.800781 12.800781 C 7.039062 12.800781 7.199219 12.640625 7.199219 12.398438 L 7.199219 10.800781 C 7.199219 10.632812 7.121094 10.503906 6.992188 10.441406 C 6.78125 10.261719 6.398438 9.898438 6.398438 9.601562 C 6.398438 9.328125 6.722656 8.996094 6.941406 8.777344 C 7.101562 8.730469 7.199219 8.589844 7.199219 8.398438 L 7.199219 2 C 7.199219 0.878906 6.320312 0 5.199219 0 Z M 3.199219 2 C 3.199219 1.320312 3.761719 0.800781 4.398438 0.800781 L 5.199219 0.800781 C 5.878906 0.800781 6.398438 1.320312 6.398438 2 L 6.398438 8 L 3.199219 8 Z M 5.878906 10.398438 L 3.71875 10.398438 C 3.878906 10.160156 4 9.878906 4 9.601562 C 4 9.320312 3.878906 9.039062 3.71875 8.800781 L 5.878906 8.800781 C 5.71875 9.039062 5.601562 9.320312 5.601562 9.601562 C 5.601562 9.878906 5.71875 10.160156 5.878906 10.398438 Z M 5.199219 17.160156 L 4.878906 18.71875 C 4.878906 18.800781 4.71875 18.800781 4.71875 18.71875 L 4.398438 17.160156 L 4.398438 15.601562 L 5.199219 15.601562 Z M 5.199219 14.800781 L 4.398438 14.800781 L 4.398438 12.800781 L 5.199219 12.800781 Z M 6.398438 12 L 3.199219 12 L 3.199219 11.199219 L 6.398438 11.199219 Z M 6.398438 12"/>
    <path d="M4.800781 1.601562C4.558594 1.601562 4.398438 1.761719 4.398438 2L4.398438 6.800781C4.398438 7.039062 4.558594 7.199219 4.800781 7.199219 5.039062 7.199219 5.199219 7.039062 5.199219 6.800781L5.199219 2C5.199219 1.761719 5.039062 1.601562 4.800781 1.601562zM12.398438 0L11.601562 0C10.480469 0 9.601562.878906 9.601562 2L9.601562 8.398438C9.601562 8.566406 9.679688 8.695312 9.804688 8.757812 10.019531 8.9375 10.398438 9.304688 10.398438 9.601562 10.398438 9.875 10.078125 10.207031 9.859375 10.421875 9.699219 10.472656 9.601562 10.609375 9.601562 10.800781L9.601562 12.398438C9.601562 12.640625 9.761719 12.800781 10 12.800781L10.800781 12.800781 10.800781 19.519531 10.441406 20.238281C10.398438 20.28125 10.398438 20.320312 10.398438 20.398438L10.398438 22C10.398438 22.238281 10.558594 22.398438 10.800781 22.398438L13.199219 22.398438C13.441406 22.398438 13.601562 22.238281 13.601562 22L13.601562 20.398438C13.601562 20.320312 13.601562 20.28125 13.558594 20.238281L13.199219 19.519531 13.199219 12.800781 14 12.800781C14.199219 12.800781 14.398438 12.640625 14.398438 12.398438L14.398438 10.800781C14.398438 10.609375 14.300781 10.472656 14.140625 10.421875 13.921875 10.207031 13.601562 9.875 13.601562 9.601562 13.601562 9.324219 13.929688 8.984375 14.148438 8.769531 14.289062 8.714844 14.398438 8.578125 14.398438 8.398438L14.398438 2C14.398438.878906 13.519531 0 12.398438 0zM10.398438 2C10.398438 1.320312 10.921875.800781 11.601562.800781L12.398438.800781C13.078125.800781 13.601562 1.320312 13.601562 2L13.601562 8 10.398438 8zM13.078125 10.398438L10.921875 10.398438C11.078125 10.160156 11.199219 9.878906 11.199219 9.601562 11.199219 9.320312 11.078125 9.039062 10.921875 8.800781L13.078125 8.800781C12.921875 9.039062 12.800781 9.320312 12.800781 9.601562 12.800781 9.878906 12.921875 10.160156 13.078125 10.398438zM12.800781 21.601562L11.199219 21.601562 11.199219 20.480469 11.441406 20 12.558594 20 12.800781 20.480469zM12.398438 19.199219L11.601562 19.199219 11.601562 12.800781 12.398438 12.800781zM13.601562 12L10.398438 12 10.398438 11.199219 13.601562 11.199219zM13.601562 12"/>
    <path d="M12 1.601562C11.761719 1.601562 11.601562 1.761719 11.601562 2L11.601562 6.800781C11.601562 7.039062 11.761719 7.199219 12 7.199219 12.238281 7.199219 12.398438 7.039062 12.398438 6.800781L12.398438 2C12.398438 1.761719 12.238281 1.601562 12 1.601562zM21.441406 8.71875C21.535156 8.648438 21.601562 8.535156 21.601562 8.398438L21.601562 2C21.601562.878906 20.71875 0 19.601562 0L18.800781 0C17.679688 0 16.800781.878906 16.800781 2L16.800781 8.398438C16.800781 8.566406 16.878906 8.695312 17.007812 8.757812 17.21875 8.9375 17.601562 9.304688 17.601562 9.601562 17.601562 9.875 17.277344 10.207031 17.058594 10.421875 16.898438 10.472656 16.800781 10.609375 16.800781 10.800781L16.800781 12.398438C16.800781 12.640625 16.960938 12.800781 17.199219 12.800781L18 12.800781 18 19.519531 17.601562 21.519531C17.601562 21.601562 17.601562 21.679688 17.640625 21.761719L18.441406 23.761719C18.480469 23.921875 18.640625 24 18.800781 24L19.601562 24C19.761719 24 19.921875 23.921875 19.960938 23.761719L20.761719 21.761719C20.800781 21.679688 20.800781 21.601562 20.800781 21.519531L20.398438 19.519531 20.398438 12.800781 21.199219 12.800781C21.398438 12.800781 21.601562 12.640625 21.601562 12.398438L21.601562 10.800781C21.601562 10.609375 21.5 10.472656 21.339844 10.421875 21.121094 10.207031 20.800781 9.875 20.800781 9.601562 20.800781 9.28125 21.238281 8.878906 21.441406 8.71875zM20.28125 10.398438L18.121094 10.398438C18.28125 10.160156 18.398438 9.878906 18.398438 9.601562 18.398438 9.320312 18.28125 9.039062 18.121094 8.800781L20.28125 8.800781C20.121094 9.039062 20 9.320312 20 9.601562 20 9.878906 20.121094 10.160156 20.28125 10.398438zM17.601562 2C17.601562 1.320312 18.121094.800781 18.800781.800781L19.601562.800781C20.28125.800781 20.800781 1.320312 20.800781 2L20.800781 8 17.601562 8zM19.320312 23.199219L19.078125 23.199219 18.398438 21.558594 18.71875 20 19.679688 20 19.960938 21.558594zM19.601562 19.199219L18.800781 19.199219 18.800781 12.800781 19.601562 12.800781zM20.800781 12L17.601562 12 17.601562 11.199219 20.800781 11.199219zM20.800781 12"/>
    <path d="M 19.199219 1.601562 C 18.960938 1.601562 18.800781 1.761719 18.800781 2 L 18.800781 6.800781 C 18.800781 7.039062 18.960938 7.199219 19.199219 7.199219 C 19.441406 7.199219 19.601562 7.039062 19.601562 6.800781 L 19.601562 2 C 19.601562 1.761719 19.441406 1.601562 19.199219 1.601562 Z M 19.199219 1.601562"/>
</svg>

<svg xmlns="http://www.w3.org/2000/svg" width="32" height="32" viewBox="0 0 24 24">
    <path d="M5.2 0h-.802c-1.117 0-2 .879-2 2v6.398c0 .168.079.297.207.36.215.18.594.547.594.844 0 .273-.32.605-.539.82-.16.05-.262.187-.262.379v1.597c0 .243.16.403.403.403h.8V17.28l.32 1.598c.079.441.438.723.88.723.437 0 .8-.282.879-.723L6 17.28V12.801h.8c.24 0 .4-.16.4-.403v-1.597c0-.168-.079-.297-.208-.36-.21-.18-.594-.543-.594-.84 0-.273.325-.605.543-.824.16-.047.258-.187.258-.379V2c0-1.121-.879-2-2-2zm-2 2c0-.68.562-1.2 1.198-1.2H5.2c.68 0 1.2.52 1.2 1.2v6h-3.2zm2.679 8.398h-2.16c.16-.238.281-.52.281-.796 0-.282-.121-.563-.281-.801h2.16c-.16.238-.277.52-.277.8 0 .278.117.56.277.797zm-.68 6.762l-.32 1.559c0 .082-.16.082-.16 0l-.32-1.559v-1.558h.8zm0-2.36h-.8v-2h.8zM6.4 12h-3.2v-.8h3.2zm0 0"/>
    <path d="M4.8 1.602c-.241 0-.402.16-.402.398v4.8c0 .24.16.4.403.4.238 0 .398-.16.398-.4V2c0-.238-.16-.398-.398-.398zm0 0M12.398 0h-.796c-1.122 0-2 .879-2 2v6.398c0 .168.078.297.203.36.215.18.593.547.593.844 0 .273-.32.605-.539.82-.16.05-.257.187-.257.379v1.597c0 .243.16.403.398.403h.8v6.719l-.359.718c-.043.043-.043.082-.043.16V22c0 .238.16.398.403.398h2.398c.242 0 .403-.16.403-.398v-1.602c0-.078 0-.117-.043-.16l-.36-.718V12.8H14a.4.4 0 0 0 .398-.402v-1.597c0-.192-.097-.328-.257-.38-.22-.214-.54-.546-.54-.82 0-.277.329-.617.547-.831a.392.392 0 0 0 .25-.372V2c0-1.121-.878-2-2-2zm-2 2c0-.68.524-1.2 1.204-1.2h.796c.68 0 1.204.52 1.204 1.2v6h-3.204zm2.68 8.398h-2.156c.156-.238.277-.52.277-.796 0-.282-.12-.563-.277-.801h2.156c-.156.238-.277.52-.277.8 0 .278.12.56.277.797zm-.277 11.204h-1.602V20.48l.242-.48h1.118l.242.48zm-.403-2.403h-.796v-6.398h.796zM13.602 12h-3.204v-.8h3.204zm0 0"/>
    <path d="M12 1.602c-.238 0-.398.16-.398.398v4.8c0 .24.16.4.398.4.238 0 .398-.16.398-.4V2c0-.238-.16-.398-.398-.398zm0 0M21.441 8.719a.397.397 0 0 0 .16-.32V2c0-1.121-.882-2-2-2h-.8c-1.121 0-2 .879-2 2v6.398c0 .168.078.297.207.36.21.18.594.547.594.844 0 .273-.325.605-.543.82-.16.05-.258.187-.258.379v1.597c0 .243.16.403.398.403H18v6.719l-.398 2c0 .082 0 .16.039.242l.8 2c.04.16.2.238.36.238h.8c.16 0 .32-.078.36-.238l.8-2c.04-.082.04-.16.04-.242l-.403-2V12.8h.801c.2 0 .403-.16.403-.402v-1.597c0-.192-.102-.328-.262-.38-.219-.214-.54-.546-.54-.82 0-.32.438-.722.641-.882zm-1.16 1.68h-2.16c.16-.239.277-.52.277-.797 0-.282-.117-.563-.277-.801h2.16c-.16.238-.281.52-.281.8 0 .278.121.56.281.797zM17.601 2c0-.68.52-1.2 1.2-1.2h.8c.68 0 1.2.52 1.2 1.2v6h-3.2zm1.72 21.2h-.243l-.68-1.641.32-1.559h.962l.28 1.559zm.28-4h-.8v-6.4h.8zm1.2-7.2h-3.2v-.8h3.2zm0 0"/>
    <path d="M19.2 1.602c-.24 0-.4.16-.4.398v4.8c0 .24.16.4.4.4.241 0 .402-.16.402-.4V2c0-.238-.16-.398-.403-.398zm0 0"/>
</svg>
